icons/btc.svg

<?xml version="1.0" ?><svg height="258px" version="1.1" viewBox="0 0 258 258" width="258px" xmlns="http://www.w3.org/2000/svg" xmlns:xlink="http://www.w3.org/1999/xlink"><title/><desc/><defs/><g fill="none" fill-rule="evenodd" id="Classic" stroke="none" stroke-width="1"><g fill="#F28931" id="Bitcoin" transform="translate(-328.000000, -409.000000)"><g transform="translate(300.000000, 381.000000)"><path d="M148.107237,163.736693 L172.359868,163.736693 C183.678289,163.736693 190.414474,171.282069 190.145395,182.060988 C190.145395,189.875442 186.641447,196.882003 180.174342,199.576733 C177.749342,200.654361 174.246053,200.92344 171.282237,200.92344 L148.107237,200.92344 L148.107237,163.736693 Z M178.288355,114.692806 C183.138355,117.387536 185.564013,122.776996 185.564013,128.974348 C185.564013,138.675639 179.904803,145.412464 170.204145,145.412464 L148.106776,145.412464 L148.106776,112.805969 L167.509408,112.805969 C171.820592,112.805969 175.593618,113.345441 178.288355,114.692806 Z M173.438158,219.517274 C173.438158,232.093118 173.438158,238.381041 173.438158,238.381041 C173.438158,238.381041 169.216228,238.381041 160.772368,238.381041 L160.772368,219.517274 L147.568421,219.517274 C147.568421,232.093118 147.568421,238.381041 147.568421,238.381041 C147.568421,238.381041 143.346711,238.381041 134.903289,238.381041 L134.903289,219.517274 C118.016009,219.517274 109.572368,219.517274 109.572368,219.517274 C109.572368,219.517274 109.572368,213.768823 109.572368,202.271923 L117.3875,202.271923 C121.428947,202.271923 124.393421,199.037721 124.393421,195.265362 L124.393421,119.004374 C124.393421,114.962279 121.159868,111.998471 117.3875,111.998471 C112.177412,111.998471 109.572368,111.998471 109.572368,111.998471 C109.572368,111.998471 109.572368,106.249582 109.572368,94.7518047 L134.903289,94.7518047 C134.903289,82.1763984 134.903289,75.8886953 134.903289,75.8886953 C134.903289,75.8886953 139.125,75.8886953 147.568421,75.8886953 L147.568421,94.7518047 L160.772368,94.7518047 C160.772368,82.1763984 160.772368,75.8886953 160.772368,75.8886953 C160.772368,75.8886953 164.994298,75.8886953 173.438158,75.8886953 L173.438158,95.020883 C179.905263,95.2906191 185.025,96.0991697 190.145395,98.2550852 C201.463158,102.566258 209.278289,113.075442 209.278289,127.088564 C209.278289,138.94577 203.888158,148.646403 193.917763,153.766127 C207.930263,158.347694 214.128289,170.473321 214.128289,183.677892 C213.859211,200.654164 202.540789,213.050185 189.067105,217.362016 C183.678289,218.978459 178.827632,219.517274 173.438158,219.517274 Z M29,156.999671 C29,227.601463 86.3973684,285 157,285 C227.601974,285 285,227.601463 285,156.999671 C285,86.3978788 227.601974,29 157,29 C86.3973684,29 29,86.3978788 29,156.999671 Z" transform="translate(157.000000, 157.000000) rotate(-345.000000) translate(-157.000000, -157.000000) "/></g></g></g></svg>

<?xml version="1.0" encoding="UTF-8" standalone="no"?>
<svg
   xmlns:dc="http://purl.org/dc/elements/1.1/"
   xmlns:cc="http://creativecommons.org/ns#"
   xmlns:rdf="http://www.w3.org/1999/02/22-rdf-syntax-ns#"
   xmlns:svg="http://www.w3.org/2000/svg"
   xmlns="http://www.w3.org/2000/svg"
   xmlns:sodipodi="http://sodipodi.sourceforge.net/DTD/sodipodi-0.dtd"
   xmlns:inkscape="http://www.inkscape.org/namespaces/inkscape"
   height="32.006634"
   version="1.1"
   viewBox="0 0 32.00663 32.006634"
   width="32.00663"
   id="svg14"
   sodipodi:docname="btc.svg"
   inkscape:version="0.92.4 (5da689c313, 2019-01-14)">
  <metadata
     id="metadata18">
    <rdf:RDF>
      <cc:Work
         rdf:about="">
        <dc:format>image/svg+xml</dc:format>
        <dc:type
           rdf:resource="http://purl.org/dc/dcmitype/StillImage" />
      </cc:Work>
    </rdf:RDF>
  </metadata>
  <sodipodi:namedview
     pagecolor="#ffffff"
     bordercolor="#666666"
     borderopacity="1"
     objecttolerance="10"
     gridtolerance="10"
     guidetolerance="10"
     inkscape:pageopacity="0"
     inkscape:pageshadow="2"
     inkscape:window-width="2736"
     inkscape:window-height="1699"
     id="namedview16"
     showgrid="false"
     inkscape:zoom="14.635659"
     inkscape:cx="19.640727"
     inkscape:cy="5.7273789"
     inkscape:window-x="-13"
     inkscape:window-y="-13"
     inkscape:window-maximized="1"
     inkscape:current-layer="svg14" />
  <title
     id="title2" />
  <desc
     id="desc4" />
  <defs
     id="defs6" />
  <g
     id="Classic"
     transform="matrix(0.12500834,0,0,0.12500834,-0.12276773,-0.12275241)"
     style="fill:none;fill-rule:evenodd;stroke:none;stroke-width:1">
    <g
       id="Bitcoin"
       transform="translate(-328,-409)"
       style="fill:#f28931">
      <g
         transform="translate(300,381)"
         id="g10">
        <path
           d="m 148.10724,163.73669 h 24.25263 c 11.31842,0 18.0546,7.54538 17.78552,18.3243 0,7.81445 -3.50394,14.82101 -9.97105,17.51574 -2.425,1.07763 -5.92829,1.34671 -8.8921,1.34671 h -23.175 z m 30.18111,-49.04388 c 4.85,2.69473 7.27566,8.08419 7.27566,14.28154 0,9.70129 -5.65921,16.43811 -15.35987,16.43811 h -22.09736 v -32.60649 h 19.40263 c 4.31118,0 8.08421,0.53947 10.77894,1.88684 z m -4.85019,104.82446 c 0,12.57585 0,18.86377 0,18.86377 0,0 -4.22193,0 -12.66579,0 v -18.86377 h -13.20395 c 0,12.57585 0,18.86377 0,18.86377 0,0 -4.22171,0 -12.66513,0 v -18.86377 c -16.88728,0 -25.33092,0 -25.33092,0 0,0 0,-5.74845 0,-17.24535 h 7.81513 c 4.04145,0 7.00592,-3.2342 7.00592,-7.00656 v -76.26099 c 0,-4.04209 -3.23355,-7.0059 -7.00592,-7.0059 -5.21009,0 -7.81513,0 -7.81513,0 0,0 0,-5.74889 0,-17.246665 h 25.33092 c 0,-12.575407 0,-18.86311 0,-18.86311 0,0 4.22171,0 12.66513,0 v 18.86311 h 13.20395 c 0,-12.575407 0,-18.86311 0,-18.86311 0,0 4.22193,0 12.66579,0 v 19.132188 c 6.4671,0.269736 11.58684,1.078287 16.70723,3.234202 11.31777,4.311175 19.1329,14.820355 19.1329,28.833475 0,11.85721 -5.39013,21.55784 -15.36053,26.67757 14.0125,4.58156 20.21053,16.70719 20.21053,29.91176 -0.26908,16.97627 -11.5875,29.37229 -25.06119,33.68413 -5.38881,1.61644 -10.23947,2.15525 -15.62894,2.15525 z M 29,156.99967 C 29,227.60146 86.397368,285 157,285 227.60197,285 285,227.60146 285,156.99967 285,86.397879 227.60197,29 157,29 86.397368,29 29,86.397879 29,156.99967 Z"
           transform="rotate(15,157,157)"
           id="path8"
           inkscape:connector-curvature="0" />
      </g>
    </g>
  </g>
</svg>
